web/ui/src/components/workflow/workflow-viewer/svgs/tool/pipeline.svg

<svg height="24" viewBox="0 0 24 24" width="24" xmlns="http://www.w3.org/2000/svg"><g fill="#fff"><path d="m0 0h24v24h-24z" opacity="0"/><path d="m4.12499996 1.5c1.1895 0 2.1975.76324138 2.52 1.81034483h10.23000004c2.6408559-.00300678 4.8040095 2.02483163 4.8787936 4.5736028.0747842 2.54877117-1.9659969 4.69159817-4.6027936 4.83294897l-.276.0072413h-1.6095c-.3311006 1.0741918-1.3536033 1.8108783-2.5143821 1.8115466-1.1607788.0006684-2.1841908-.7348403-2.5166179-1.80865l-3.10950004-.0028966c-1.8213872-.0032361-3.31686686 1.3894868-3.37923163 3.1470394-.06236477 1.7575525 1.33088579 3.2458315 3.14823163 3.3629606l.231.0072414h10.23000004c.3338524-1.0744866 1.3581405-1.8103258 2.52-1.8103448 1.4497474 0 2.625 1.1347266 2.625 2.5344827 0 1.3997562-1.1752526 2.5344828-2.625 2.5344828-1.1618595 0-2.1861476-.7358582-2.52-1.8103448h-10.23000004c-2.64085596.0030068-4.80400952-2.0248317-4.87879366-4.5736028-.07478414-2.5487712 1.96599688-4.6915982 4.60279366-4.832949l.276-.0072413h3.10950004c.3309274-1.0752206 1.3544989-1.81252962 2.51625-1.81252962 1.161751 0 2.1853225.73730902 2.51625 1.81252962h1.608c1.8213872.0032361 3.3168668-1.38948683 3.3792316-3.14703938s-1.3308858-3.24583148-3.1482316-3.36296065l-.231-.00724138h-10.23000004c-.33385243 1.07448664-1.35814054 1.81032579-2.52 1.81034483-1.44974745-.00000002-2.62499996-1.1347266-2.62499996-2.53448276s1.17525251-2.53448276 2.62499996-2.53448276zm15.75000004 17.3793103c-.6213204 0-1.125.4863114-1.125 1.0862069s.5036796 1.0862069 1.125 1.0862069c.6213203 0 1.125-.4863114 1.125-1.0862069s-.5036797-1.0862069-1.125-1.0862069zm-7.125-7.9655172c-.3880372.0001551-.7485991.1933775-.954.5112414l-.042.0695172c-.1202586.2198813-.1583981.4730485-.108.7168966l.0375.1346896.042.1013793.075.1332414.093.1231035-.0615-.0767587c.2167695.2958638.572086.4678567.9473136.4585523.3752275-.0093043.7209318-.1986802.9216864-.5048971l.045-.0767586.03-.0564828.0405-.1013793c.0908045-.2599952.0763354-.5435376-.0405-.7936551l-.03-.0579311-.042-.0695172-.0375-.0550345c-.2110874-.2862513-.5525563-.4562069-.9165-.4562069zm-8.62500004-7.96551724c-.62132034 0-1.125.48631139-1.125 1.0862069 0 .5998955.50367966 1.0862069 1.125 1.0862069s1.125-.4863114 1.125-1.0862069c0-.59989551-.50367966-1.0862069-1.125-1.0862069z"/></g></svg>

<?xml version="1.0" encoding="UTF-8"?>
<svg width="24px" height="24px" viewBox="0 0 24 24" version="1.1" xmlns="http://www.w3.org/2000/svg" xmlns:xlink="http://www.w3.org/1999/xlink">
    <title>flowchart</title>
    <g id="页面-1" stroke="none" stroke-width="1" fill="none" fill-rule="evenodd">
        <g id="建木自动化-首页" transform="translate(-444.000000, -459.000000)" fill="#FFFFFF" fill-rule="nonzero">
            <g id="flowchart" transform="translate(444.000000, 459.000000)">
                <rect id="矩形" opacity="0" x="0" y="0" width="24" height="24"></rect>
                <path d="M4.12499996,1.5 C5.31449996,1.5 6.32249996,2.26324138 6.64499996,3.31034483 L16.875,3.31034483 C19.5158559,3.30733805 21.6790095,5.33517646 21.7537936,7.88394763 C21.8285778,10.4327188 19.7877967,12.5755458 17.151,12.7168966 L16.875,12.7241379 L15.2655,12.7241379 C14.9343994,13.7983297 13.9118967,14.5350162 12.7511179,14.5356845 C11.5903391,14.5363529 10.5669271,13.8008442 10.2345,12.7270345 L7.12499996,12.7241379 C5.30361276,12.7209018 3.8081331,14.1136247 3.74576833,15.8711773 C3.68340356,17.6287298 5.07665412,19.1170088 6.89399996,19.2341379 L7.12499996,19.2413793 L17.355,19.2413793 C17.6888524,18.1668927 18.7131405,17.4310535 19.875,17.4310345 C21.3247474,17.4310345 22.5,18.5657611 22.5,19.9655172 C22.5,21.3652734 21.3247474,22.5 19.875,22.5 C18.7131405,22.5 17.6888524,21.7641418 17.355,20.6896552 L7.12499996,20.6896552 C4.484144,20.692662 2.32099044,18.6648235 2.2462063,16.1160524 C2.17142216,13.5672812 4.21220318,11.4244542 6.84899996,11.2831034 L7.12499996,11.2758621 L10.2345,11.2758621 C10.5654274,10.2006415 11.5889989,9.46333248 12.75075,9.46333248 C13.912501,9.46333248 14.9360725,10.2006415 15.267,11.2758621 L16.875,11.2758621 C18.6963872,11.2790982 20.1918668,9.88637527 20.2542316,8.12882272 C20.3165964,6.37127017 18.9233458,4.88299124 17.106,4.76586207 L16.875,4.75862069 L6.64499996,4.75862069 C6.31114753,5.83310733 5.28685942,6.56894648 4.12499996,6.56896552 C2.67525251,6.5689655 1.5,5.43423892 1.5,4.03448276 C1.5,2.6347266 2.67525251,1.5 4.12499996,1.5 Z M19.875,18.8793103 C19.2536796,18.8793103 18.75,19.3656217 18.75,19.9655172 C18.75,20.5654127 19.2536796,21.0517241 19.875,21.0517241 C20.4963203,21.0517241 21,20.5654127 21,19.9655172 C21,19.3656217 20.4963203,18.8793103 19.875,18.8793103 L19.875,18.8793103 Z M12.75,10.9137931 C12.3619628,10.9139482 12.0014009,11.1071706 11.796,11.4250345 L11.754,11.4945517 C11.6337414,11.714433 11.5956019,11.9676002 11.646,12.2114483 L11.6835,12.3461379 L11.7255,12.4475172 L11.8005,12.5807586 L11.8935,12.7038621 L11.832,12.6271034 C12.0487695,12.9229672 12.404086,13.0949601 12.7793136,13.0856557 C13.1545411,13.0763514 13.5002454,12.8869755 13.701,12.5807586 L13.746,12.504 L13.776,12.4475172 L13.8165,12.3461379 C13.9073045,12.0861427 13.8928354,11.8026003 13.776,11.5524828 L13.746,11.4945517 L13.704,11.4250345 L13.6665,11.37 C13.4554126,11.0837487 13.1139437,10.9137931 12.75,10.9137931 Z M4.12499996,2.94827586 C3.50367962,2.94827586 2.99999996,3.43458725 2.99999996,4.03448276 C2.99999996,4.63437826 3.50367962,5.12068966 4.12499996,5.12068966 C4.7463203,5.12068966 5.24999996,4.63437826 5.24999996,4.03448276 C5.24999996,3.43458725 4.7463203,2.94827586 4.12499996,2.94827586 Z" id="形状"></path>
            </g>
        </g>
    </g>
</svg>
